X:1
T:Christe Redemptor omnium, conserva - Ortiz
T:#
%%score [ 1 { 2 | 3 } 4 5 ]
L:1/8
Q:1/4=200
M:none
K:F
V:1 treble nm="Soprano" snm="S"
V:2 treble nm="Alto" snm="A"
V:3 treble 
V:4 treble-8 nm="Tenor" snm="T"
V:5 bass nm="Bass" snm="B"
V:1
"^Office hymn for the feast of All Saints""^Christe Redemptor omnium, conserva""^Diego Ortiz\n(1510-1570)""^Attr. Rabanus Maurus\n(776-856)" z16 | %1
w: |
 z16 | z16 | z8 G8 | A12 A4 | c16 | (c8 B8) | (A8 G8 | A4 B6 A2 G4- | G4 ^F2 E2) F8 | G16 | z16 | %12
w: ||Chri-|ste Re-|dem-|ptor *|o\- *||* * * mni-|um,||
 z8 z4 F4 | A4 A4 (c8- | c4 B2 A2 B4 c4 | d12) d4 | (c6 d2 e4 f4- | f2 e2 d8) c4 | d16 | z8 d8 | %20
w: Con-|ser- va tu\-||* os|fa\- * * *|* * * mu-|los|Be-|
 d4 _e4 (d4 c2 B2 | c4) B4 (c6 B2 | A4 G2 F2 G4 A4- | A4) G4 A8- | A8 z8 | z16 | F16 | G8 A8 | %28
w: a- tae sem\- * *|* per Vir\- *||* gi- nis|||Pla-|ca- tus|
 c8 (c8 | B8) A8 |[Q:1/4=198] (A4[Q:1/4=195] B6[Q:1/4=192] A2[Q:1/4=190] G4- | %31
w: * san\-|* ctis|pre\- * * *|
[Q:1/4=188] G4[Q:1/4=186] ^F2[Q:1/4=185] E2[Q:1/4=183] F4)[Q:1/4=181] F4 |[Q:1/4=180] G16 || %33
w: * * * * ci-|bus.|
[Q:1/4=200] z16 | z4 G4 A4 c4 | B4 d8 c4 | d8 G8 | z16 | F8 G8 | B8 A8- | A4 F4 (G6 A2 | %41
w: |Cho- ri san-|cta- rum Vir-|gi- num,||cho- ri|san- cta\-|* rum Vir\- *|
 B2 c2 d6 c2) B4 | (A6 B2 c8) | z4 B4 d8 | f12 e4 | d4 (d8 c2 B2 | c4) c4 d8- | d8 z4 d4 | %48
w: * * * * gi-|num, * *|Mo- na-|cho- rum-|que o\- * *|* mni- um,|* Si-|
 _e4 (c8 B4) | c8 d8 | c12 c4 | A8 z4 G4 | A12 B4 | c12 c4 | (G6 A2 B4) B4 | %55
w: mul cum *|San- ctis|o- mni-|bus Con-|sor- tes|Chri- sti|fa\- * * ci-|
 c8[Q:1/4=197] (c6[Q:1/4=194] B2 |[Q:1/4=192] A2[Q:1/4=191] G2[Q:1/4=187] A8)[Q:1/4=182] F4- | %57
w: te, Chri\- *|* * * sti|
[Q:1/4=179] F4[Q:1/4=175] G8[Q:1/4=171] ^F4 |[Q:1/4=170] G16 |] %59
w: * fa- ci-|te.|
V:2
 z16 | z16 | z8 z4 D4 | E4 E4 G4 D4 | F12 D4 | E4 C8 E4- | E4 E4 (G8 | E4) F4 D8- | D4 D4 (B,4 C4 | %9
w: ||Chri-|ste Re- dem- ptor|o- mni-|um, Chri- ste|* Re- dem\-|* ptor o\-|* mni- um, *|
 D16) | z4 B,4 D4 D4 | F8 C4 (F4- | F4 E2 D2 E4) D4 | E12 F4 | (G4 D4 F8) | D4 F8 F4 | %16
w: |Con- ser- va|tu- os fa\-|* * * * mu-|los, con-|ser\- * *|va tu- os|
 F4 F4 (G4 F2 G2 | A8) z4 A4 | A4 B4 (A6 G2 | F4 G8 F4) | (G6 A2 B4) (A4- | A4 G4 F4 E4 | %22
w: fa- mu- los * *|* Be-|a- tae sem\- *||per * * Vir\-||
 F4 D6 E2 F4 | D4) E4 F4 C4 | D8 E8 | (F4 E2 D2) E8 | D8 C4 D4- | D4 E4 (F8- | F4 E2 D2 E4) F4 | %29
w: |* gi- nis Pla-|ca- tus|san\- * * ctis|pre- ci- bus,|* pla- ca\-|* * * * tus|
 (D4 E4) F4 (F4- | F2 E2 D2 C2 B,4) C4 | D16- | D16 || D8 E4 G4 | F4 (E2 D2) E4 F4 | G16 | %36
w: san\- * ctis pre\-|* * * * * ci-|bus.||Cho- ri san-|cta- rum * Vir- gi-|num,|
 z4 D4 E8 | G8 (F6 G2 | A4) (F8 E4) | F16- | F8 E8 | D16 | z4 C4 E8 | G4 G4 B8 | A8 G8 | B8 A8 | %46
w: cho- ri|san- cta\- *|* rum *|Vir\-|* gi-|num,|Mo- na-|cho- rum- que|o- mni-|um, o-|
 (A6 G2 F4) G4 | z4 A4 B4 G4 | G8 F8 | G8 G4 G4 | E4 F4 G8 | F8 D8 | z4 C4 D4 F4- | F4 E4 E8- | %54
w: mni\- * * um,|Si- mul cum|San- ctis,|si- mul cum|San- ctis o-|mni- bus|Con- sor- tes|* Chri- sti|
 E8 F8- | F8 E8 | F4 (F6 E2 D2 C2 | D4) D4 D8- | D16 |] %59
w: * fa\-|* ci-|te, fa\- * * *|* ci- te.||
V:3
 x16 | x16 | x16 | x16 | x16 | x16 | x16 | x16 | x16 | x16 | x16 | x16 | x16 | x16 | x16 | x16 | %16
w: ||||||||||||||||
 x16 | x16 | x16 | x16 | x16 | x16 | x16 | x16 | x16 | x16 | x16 | x16 | x16 | x16 | z16 | z16 | %32
w: ||||||||||||||||
 z16 || z16 | z16 | D8 E4 G4- | G4 (F4 G6 F2 | E8) D8 | C16 | D16- | D8 G,4 C4 | D4 F8 F4 | %42
w: |||Cho- ri san\-|* cta\- * *|* rum|Vir-|gi\-|* num, Mo-|na- cho- rum-|
 F8 E4 (C4- | C4 B,2 A,2 B,2 C2 D4- | D4 C2 B,2 C8 | D6 E2 F4 E2 D2 | E8) D8- | D16 | z8 (D8 | %49
w: que o- mni\-||||* um,||Si\-|
 _E8) (D6 CB, | A,4) C4 C8- | C4 C4 B,4 B,4 | A,8 z8 | C16 | C8 F,4 D4 | C12 C4 | C8 D8 | D12 A,4 | %58
w: * mul * *|* cum San\-|* ctis o- mni-|bus|Con-|sor- tes, con-|sor- tes|Chri- sti|fa- ci-|
 =B,16 |] %59
w: te.|
V:4
 d8 e4 e4 | g8 (f4 e2 d2 | e4) (e8 d4- | d4) (c8 B4 | A6 G2 F8) | G4 G4 A4 A4 | c4 c4 (d8 | %7
w: Chri- ste Re-|dem- ptor * *|* o\- *|* mni\- *||um, Chri- ste Re-|dem- ptor o\-|
 c12) B4 | A4 (F4 G6 A2 | B4 A2 G2) A8 | G8 z4 B4 | d4 d4 f8 | (c12 d4) | (c16 | d6 c2 B4) A4 | %15
w: * mni-|um, o\- * *|* * * mni-|um, Con-|ser- va tu-|os *|fa\-|* * * mu-|
 B4 F8 A4 | A4 c8 A4 | f8 e8 | d8 z4 d4 | d4 _e4 (d6 c2 | B4 c4) B4 (c4- | c4 d4 c8- | %22
w: los, con- ser-|va tu- os|fa- mu-|los Be-|a- tae sem\- *|* * per Vir\-||
 c4 B2 A2 B4 c4) | B8 A8 | z4 F4 G8 | A8 c8 | A16 | (B8 c8) | c12 A4 | B4 B4 (c2 B2 A2 G2 | F8 G8 | %31
w: |gi- nis|Pla- ca-|tus san-|ctis|pre\- *|ci\- *|bus, pre- ci\- * * *||
 A16) | G16 || z16 | z16 | z8 G8 | A8 c8 | c4 c4 A8- | A4 A4 G8 | z8 F8 | A8 c4 (G4- | %41
w: |bus.|||Cho-|ri san-|cta- rum Vir\-|* gi- num,|Mo-|na- cho- rum\-|
 G4 F2 E2) (F6 G2 | A8 G8- | G8 (F8- | F8 G8- | G8) A8- | A8 z8 | z8 B8 | c8) F8 | z4 c8 B4 | %50
w: * * * que *|* o\-|* mni\-||* um,||Si\-|* mul|cum San-|
 c4 A4 G8 | A8 z8 | F16 | G8 A8 | c8 B8 | (A8 G8 | A16) | (B8 A8) | G16 |] %59
w: ctis o- mni-|bus|Con-|sor- tes|Chri- sti|fa\- *||ci\- *|te.|
V:5
 z16 | G,8 A,4 A,4 | C12 B,4 | (A,8 G,8) | (F,6 E,2 D,8) | C,8 z8 | z8 G,8 | A,4 F,4 G,8 | %8
w: |Chri- ste Re-|dem- ptor|o\- *|mni\- * *|um,|Chri-|ste Re- dem-|
 D,8 _E,8 | D,16 | G,16 | z8 F,8 | A,4 A,4 C4 B,4 | A,12 A,4 | G,8 z8 | B,,8 D,4 D,4 | %16
w: ptor o-|mni-|um,|Con-|ser- va tu- os|fa- mu-|los,|con- ser- va|
 (F,6 E,D,) C,4 (D,4- | D,2 E,2 F,2 G,2 A,6 G,2 | F,4 G,4 D,8 | z16 | z8 z4 A,4 | %21
w: tu\- * * os fa\-||* mu- los||Be-|
 A,4 B,4 (A,6 G,2 | F,4 G,8 F,4) | G,8 F,6 E,2 | D,4 D,4 C,8 | z8 C,8 | (D,6 E,2 F,4) D,4 | %27
w: a- tae sem\- *||per Vir\- *|* gi- nis|Pla-|ca\- * * tus|
 G,8 F,6 G,2 | A,12) F,4 | G,8 (F,6 E,2 | D,2 C,2 B,,4) _E,8 | D,16 | G,16 || z8 z4 G,4 | %34
w: san- ctis *|* pre-|ci- bus, *|* * * pre-|ci-|bus.|Cho-|
 A,4 (C6 B,2 A,4) | G,6 F,2 E,8 | D,8 C,8 | z4 C,4 D,8 | F,8 C,8 | (B,,6 C,2) D,8- | D,4 D,4 C,8 | %41
w: ri san\- * *|cta- rum Vir-|gi- num,|cho- ri|san- cta-|rum * Vir\-|* gi- num,|
 z4 B,,4 D,8 | F,8 (C,6 D,2) | _E,8 (B,,6 C,2 | D,2 E,2) F,4 C,8 | z16 | z4 A,4 B,4 G,4- | %47
w: Mo- na-|cho- rum\- *|que o\- *|* * mni- um,||Si- mul cum|
 G,4 F,4 G,8 | C,8 D,8 | C,8 G,8 | A,4 F,8 E,4 | F,8 G,8 | (F,6 E,2 D,8) | C,8 z8 | C,8 D,8 | %55
w: * San- ctis|o- mni-|bus, Si-|mul cum San-|ctis o-|mni\- * *|bus|con- sor-|
 F,8 (C,8 | F,8) D,8 | (B,,6 C,2 D,4) D,4 | G,,16 |] %59
w: tes Chri\-|* sti|fa\- * * ci-|te.|

